docs/img/about/vk.svg

<svg width="41" height="23" viewBox="0 0 41 23" fill="none" xmlns="http://www.w3.org/2000/svg">
<path d="M34.8226 14.385C36.1662 15.6814 37.581 16.8996 38.7823 18.321C39.3118 18.9535 39.8176 19.6095 40.2049 20.3436C40.7503 21.3901 40.2602 22.5381 39.3118 22.6005H33.4158C31.8984 22.7255 30.6812 22.1242 29.6617 21.0933C28.8476 20.2733 28.0889 19.3987 27.3064 18.5474C26.9824 18.2038 26.6504 17.8758 26.2474 17.6181C25.4412 17.1027 24.7457 17.2589 24.2873 18.0867C23.821 18.9301 23.7103 19.8672 23.6629 20.8044C23.5997 22.1788 23.1808 22.5381 21.7819 22.6005C18.8023 22.7411 15.9728 22.296 13.3489 20.8122C11.0332 19.5002 9.23906 17.6572 7.67417 15.5642C4.63133 11.4877 2.2998 7.00508 0.205377 2.40531C-0.268832 1.36665 0.078921 0.812183 1.24073 0.788754C3.16128 0.749707 5.08973 0.757517 7.01028 0.788754C7.79272 0.796564 8.30645 1.2417 8.61469 1.97579C9.65794 4.50605 10.9304 6.91136 12.5269 9.13706C12.9537 9.73057 13.3884 10.3241 14.0049 10.738C14.6846 11.1987 15.2062 11.0504 15.5302 10.2929C15.7357 9.81648 15.8227 9.30105 15.8701 8.79344C16.0203 7.03631 16.044 5.27919 15.7752 3.52987C15.6093 2.43655 14.9849 1.72589 13.8863 1.52284C13.3252 1.41351 13.4042 1.21046 13.6808 0.890277C14.155 0.343616 14.5976 0 15.4907 0H22.1534C23.2045 0.203046 23.4337 0.671613 23.576 1.71027L23.5839 9.01991C23.576 9.42601 23.7894 10.6209 24.5244 10.8864C25.1172 11.0738 25.5044 10.613 25.8522 10.2382C27.4487 8.56697 28.5868 6.59117 29.6063 4.53729C30.0568 3.6392 30.4441 2.70207 30.8235 1.76494C31.1001 1.06989 31.5427 0.734088 32.333 0.749707L38.727 0.773135C38.9166 0.773135 39.1063 0.773135 39.296 0.804373C40.3788 0.983991 40.6712 1.44475 40.3393 2.49121C39.8097 4.12339 38.7902 5.49004 37.7864 6.8567C36.7195 8.31706 35.5735 9.73057 34.5144 11.1987C33.5423 12.542 33.6134 13.2214 34.8226 14.385Z" fill="#436EAB"/>
</svg>

<svg width="41" height="23" fill="none" xmlns="http://www.w3.org/2000/svg"><path d="M34.823 14.385c1.343 1.296 2.758 2.515 3.96 3.936.529.632 1.035 1.288 1.422 2.023.545 1.046.055 2.194-.893 2.256h-5.896c-1.518.125-2.735-.476-3.754-1.507-.814-.82-1.573-1.694-2.356-2.546-.324-.343-.656-.671-1.059-.929-.806-.515-1.501-.36-1.96.469-.466.843-.577 1.78-.624 2.717-.063 1.375-.482 1.734-1.881 1.797-2.98.14-5.81-.305-8.433-1.789-2.316-1.312-4.11-3.155-5.675-5.248C4.631 11.488 2.3 7.005.205 2.405-.269 1.367.08.812 1.241.79c1.92-.04 3.849-.031 5.77 0 .782.008 1.295.453 1.604 1.187 1.043 2.53 2.315 4.935 3.912 7.161.427.594.861 1.187 1.478 1.601.68.46 1.201.312 1.525-.445.206-.477.293-.992.34-1.5.15-1.757.174-3.514-.095-5.263-.166-1.093-.79-1.804-1.889-2.007-.56-.11-.482-.313-.205-.633.474-.546.917-.89 1.81-.89h6.662c1.052.203 1.28.672 1.423 1.71l.008 7.31c-.008.406.205 1.6.94 1.866.593.188.98-.273 1.328-.648 1.597-1.671 2.735-3.647 3.754-5.7.45-.899.838-1.836 1.217-2.773.277-.695.72-1.03 1.51-1.015l6.394.023c.19 0 .38 0 .569.031 1.083.18 1.375.64 1.043 1.687-.53 1.632-1.549 2.999-2.553 4.366-1.067 1.46-2.212 2.874-3.272 4.342-.972 1.343-.9 2.022.309 3.186z" fill="#436EAB"/></svg>
